src/assets/bold/lm-arrow-2-lines-bold.svg

<svg width="24" height="24" viewBox="0 0 24 24" fill="none" xmlns="http://www.w3.org/2000/svg" fill="currentColor">
<path d="M17.7415 18.6318L17.8761 18.6461C18.1815 18.7098 18.4116 18.9853 18.4116 19.3159C18.4116 19.6465 18.1815 19.9221 17.8761 19.9857L17.7415 20H6.25848C5.88854 20 5.58845 19.6936 5.58845 19.3159C5.58845 18.9382 5.88854 18.6318 6.25848 18.6318H17.7415ZM21.33 15.7009L21.4645 15.7152C21.77 15.7788 22 16.0543 22 16.3849C22 16.7156 21.77 16.9911 21.4645 17.0547L21.33 17.069H2.67003C2.30009 17.069 2 16.7627 2 16.3849C2 16.0072 2.30009 15.7009 2.67003 15.7009H21.33ZM11.2702 3.68408C11.2702 3.30638 11.5702 3 11.9402 3C12.3101 3 12.6102 3.30638 12.6102 3.68408V11.4361L15.2343 8.75699C15.4959 8.48991 15.9203 8.48991 16.1819 8.75699C16.4434 9.02406 16.4434 9.45736 16.1819 9.72444L12.414 13.5713C12.1524 13.8384 11.728 13.8384 11.4664 13.5713L7.69853 9.72444L7.61256 9.61662C7.44118 9.35121 7.46976 8.99056 7.69853 8.75699C7.92731 8.52341 8.28055 8.49424 8.54051 8.66921L8.64611 8.75699L11.2702 11.4361V3.68408Z" fill="black"/>
</svg>

<svg xmlns="http://www.w3.org/2000/svg" width="24" height="24" fill="currentColor" viewBox="0 0 24 24">
  <path d="m17.741 18.632.135.014a.68.68 0 0 1 .536.67.68.68 0 0 1-.536.67l-.135.014H6.258a.677.677 0 0 1-.67-.684c0-.378.3-.684.67-.684h11.483ZM21.33 15.7l.135.014a.68.68 0 0 1 .535.67.68.68 0 0 1-.535.67l-.135.014H2.67a.677.677 0 0 1-.67-.684c0-.378.3-.684.67-.684h18.66ZM11.27 3.684c0-.378.3-.684.67-.684.37 0 .67.306.67.684v7.752l2.624-2.679a.66.66 0 0 1 .948 0c.261.267.261.7 0 .967l-3.768 3.847a.66.66 0 0 1-.948 0L7.7 9.724l-.086-.107a.695.695 0 0 1 .086-.86.66.66 0 0 1 .842-.088l.105.088 2.624 2.68V3.683Z"/>
</svg>
